X: 1288
T: Polska efter Nils Sivertsson
R: Polska
Z: Håkan Lidén, 2009-03-17
O: Lillhärdal, Härjedalen
S: efter Nils Sivertsson
D: Dans Brothers (osäker på skiva)
M: 3/4
L: 1/8
K: G
G>B d2 d>c | B>D B4 | Bc/B/ A>d F>A | G>D (3B,DB, G,2 |
G>B d2 d>c | B>D B4 | Bc/B/ A>d F>A | G2 G4 :|]
|: B>c d>g f>g | a>g e<c A2 | F>G A>d ^c>d | e>d B<A G2 |
B>c d>g f>g | a>g e<c A2 | F>G A>e d>F | G2 G4 :]
(:musicend:)
Jfr [[Musik/1172|+]]
(:music:)
